!!!!SEGMENT: Any1005b-Missa_Spes_salutis-Gloria--s_Hertogenbosch_157.krn
!!!id: Any1005b
!!!OTL: Gloria
!!!AGN: Mass; Gloria
!!!voices: 4
!!!COM: Anonymous
!!!SMS: s Hertogenbosch 157
!!!OPR: Missa Spes salutis ('s-Hertogenbosch 157)
**kern	**kern	**kern	**kern
*part4	*part3	*part2	*part1
*staff4	*staff3	*staff2	*staff1
*I"Bassus	*I"Tenor	*I"Altus	*I"Superius
*I'B	*I'T	*I'A	*I'S
*clefF4	*clefGv2	*clefG2	*clefG2
*k[]	*k[]	*k[]	*k[]
*C:	*C:	*C:	*C:
*M2/1	*M2/1	*M2/1	*M2/1
*met(C|)	*met(C|)	*met(C|)	*met(C|)
!!section: Et in terra pax
!!!OMD: Et in terra pax
=1	=1	=1	=1
0r	0r	0r	0ee
=2	=2	=2	=2
0r	0r	1r	1ee
.	.	[1a	1ff
=3	=3	=3	=3
0r	0r	1a]	1.ee
.	.	1a	.
.	.	.	4dd
.	.	.	4cc
=4	=4	=4	=4
0r	0r	1b	2dd
.	.	.	1gg
.	.	[1a	.
.	.	.	[2ff
=5	=5	=5	=5
0r	1r	2a]	2ff]
.	.	4g	4ee
.	.	4f	4dd
.	[1e	2.g	2ee
.	.	.	2ee
.	.	4f	.
=6	=6	=6	=6
0r	1e]	4g	2ee
.	.	4e	.
.	.	1a	4dd
.	.	.	4cc
.	1e	.	1b
.	.	2g#i	.
=7	=7	=7	=7
0A	1f	0a	0a
.	[1e	.	.
=8	=8	=8	=8
1A	2e]	1a	0r
.	4d	.	.
.	4c	.	.
1B	2d	2f	.
.	[2g	2g	.
=9	=9	=9	=9
1.A	2g]	1a	0r
.	1f	.	.
.	.	1a	.
4G	4e	.	.
4F	4d	.	.
=10	=10	=10	=10
2.G	2e	1.g	1.b
.	2e	.	.
4F	.	.	.
4G	2e	.	.
4E	.	.	.
[2A	4d	2e	2b
.	4c	.	.
=11	=11	=11	=11
2A]	1B	1e	1b
2G	.	.	.
[1A	2A	2r	[1cc
.	[2c	[2e	.
=12	=12	=12	=12
2A]	4c]	2e]	2cc]
.	4A	.	.
2G	1d	2e	2b
1A	.	1e	1a
.	2c	.	.
=13	=13	=13	=13
1D	1d	1f	1a
[1E	2B	[1e	2g
.	[2e	.	[2b
=14	=14	=14	=14
2E]	4e]	0e]	2b]
.	4d	.	.
2E	2c	.	1a
1E	1B	.	.
.	.	.	2g#i
=15	=15	=15	=15
1F	1A	2.c	2a
.	.	.	1cc
.	.	4d	.
1E	2r	1e	.
.	[2e	.	2b
=16	=16	=16	=16
1.A	2e]	1c	2a
.	2e	.	1cc
.	1e	2A	.
2G	.	2B	[2b
=17	=17	=17	=17
2F	1f	2c	2b]
2D	.	2d	1a
1E	1e	1B	.
.	.	.	2g#i
=18	=18	=18	=18
1A	0c	0A	[0a
1r	.	.	.
=19	=19	=19	=19
1.A	2r	0r	0a]
.	2e	.	.
.	2c	.	.
2F	[2f	.	.
=20	=20	=20	=20
1G	2f]	1r	1r
.	4e	.	.
.	4d	.	.
1A	1c	[1a	2r
.	.	.	2ee
=21	=21	=21	=21
0r	0r	2a]	2cc
.	.	2f	1ff
.	.	1g	.
.	.	.	4ee
.	.	.	4dd
=22	=22	=22	=22
1F	2r	1a	1cc
.	2f	.	.
2.B-i	2f	1r	1r
.	2d	.	.
4B-i	.	.	.
=23	=23	=23	=23
2A	2e	1r	1r
2G	2e	.	.
1F	1f	1f	2r
.	.	.	2ff
=24	=24	=24	=24
0r	0r	2.b-i	2ff
.	.	.	2dd
.	.	4b-i	.
.	.	2a	2ee
.	.	2g	2ee
=25	=25	=25	=25
2.B-i	2.d	1f	1ff
4B-i	4d	.	.
2A	2e	1r	1r
2G	2e	.	.
=26	=26	=26	=26
1F	1A	2.f	2.ff
.	.	4f	4ff
1r	1r	2g	2ee
.	.	2g	2dd
=27	=27	=27	=27
1F	2r	1a	2cc
.	2f	.	2a
2.B-i	2f	2.f	2.dd
.	2d	.	.
4A	.	4f	4cc
=28	=28	=28	=28
2G	2d	2g	2b
2G	2e	2g	2b-X
[1F	2f	1a	2a
.	2c	.	4f
.	.	.	4g
=29	=29	=29	=29
1F]	2.f	2r	4a
.	.	.	4b
.	.	2f	4cc
.	4f	.	4dd
1r	2e	2.b-i	2ee
.	2d	.	[2ff
.	.	4b-i	.
=30	=30	=30	=30
2r	2c	2a	4ff]
.	.	.	8eeL
.	.	.	8ddJ
2c	2c	2g	2ee
2.f	2.a	2f	4cc
.	.	.	4b
.	.	[2cc	4cc
4f	4a	.	4dd
=31	=31	=31	=31
2e	2g	2cc]	2ee
2d	2f	2b	1ff
1c	1g	1cc	.
.	.	.	2ee
=32	=32	=32	=32
2r	0f	0a	2ff
2.F	.	.	4ee
.	.	.	4dd
.	.	.	2cc
4F	.	.	.
2F	.	.	[2dd
=33	=33	=33	=33
2G	1r	2r	2dd]
2A	.	2.f	2cc
2B-i	2r	.	2dd
.	.	4f	.
2F	[2c	2f	2ff
=34	=34	=34	=34
2c	4c]	2g	1ee
.	4c	.	.
4B	2c	2a	.
4A	.	.	.
2G	2d	2b-i	2r
2c	2e	4a	[2cc
.	.	4g	.
=35	=35	=35	=35
1F	2.f	2a	4cc]
.	.	.	4cc
.	.	1f	2cc
.	4e	.	.
1r	2d	.	2dd
.	2c	2g	2ee
=36	=36	=36	=36
2.F	1f	2a	2.ff
.	.	2.f	.
4F	.	.	4ee
2B-i	2r	.	2dd
.	.	4f	.
2A	2c	2f	2cc
=37	=37	=37	=37
1G	2d	2g	4b
.	.	.	4a
.	2.g	2a	4b
.	.	.	4cc
1r	.	2b-i	4dd
.	4f	.	4ee
.	4e	4a	[2dd
.	4d	4g	.
=38	=38	=38	=38
1A	2e	2a	2dd]
.	2e	2a	2cc#X
2B	2.d	1f	[1dd
[2d	.	.	.
.	4e	.	.
=39	=39	=39	=39
2d]	2f	2r	1dd]
2G	1g	2d	.
2.c	.	2e	1r
.	4f	[2g	.
4c	4e	.	.
=40	=40	=40	=40
2B	2d	2g]	1r
2A	2a	2c	.
1d	4a	2.f	2r
.	4g	.	.
.	4a	.	2a
.	4f	4f	.
=41	=41	=41	=41
0G	1g	2e	2b
.	.	2d	1dd
.	1G	1g	.
.	.	.	2g
=42	=42	=42	=42
2.A	2r	4c	2.cc
.	.	4d	.
.	2A	4e	.
4A	.	4f	4cc
2G	2B	2g	2b
2F	[2d	2a	2a
=43	=43	=43	=43
1G	2d]	2d	2dd
.	2G	2.g	2b
2.C	2.c	.	2.cc
.	.	4f	.
.	.	[2e	.
4D	4c	.	8bL
.	.	.	8aJ
=44	=44	=44	=44
2E	2B	2e]	2g
2F	2A	2d	1a
1E	1B	1e	.
.	.	.	2g#i
=45	=45	=45	=45
1F	[0A	1.c	1a
1r	.	.	2r
.	.	[2f	[2a
=46	=46	=46	=46
2.D	0A]	2f]	2a]
.	.	4e	2b
4D	.	4d	.
2A	.	1c	2cc
2A	.	.	4b
.	.	.	4a
=47	=47	=47	=47
2G	0r	1r	2b
2A	.	.	1a
2B	.	2.d	.
2B	.	.	2g
.	.	4d	.
=48	=48	=48	=48
1A	2.A	2a	1cc
.	.	2a	.
.	4A	.	.
2.E	2e	2.g	1b
.	2e	.	.
4F	.	4a	.
=49	=49	=49	=49
1G	2d	2b	1r
.	2e	2b	.
1D	2f	2a	2.a
.	2f	4g	.
.	.	4f	4a
=50	=50	=50	=50
0r	2.e	2.g	2ee
.	.	.	2ee
.	4f	4a	.
.	2g	2b	2dd
.	4f	[2cc	2ee
.	4e	.	.
=51	=51	=51	=51
1D	1d	2cc]	2ff
.	.	2b	2ff
2A	2c	2cc	[1ee
2A	2A	2c	.
=52	=52	=52	=52
2G	2e	1r	1ee]
2A	2e	.	.
2B	2d	1d	1r
2B	2e	.	.
=53	=53	=53	=53
2A	2f	2a	2r
2F	2f	2a	2a
2c	2e	2g	2ee
2c	2e	2a	2ee
=54	=54	=54	=54
2G	2g	2b	2dd
2G	2g	2b	2ee
2d	1f	2a	2ff
2d	.	2d	2ff
=55	=55	=55	=55
2.A	2r	2a	2ee
.	1e	2a	4cc
4B	.	.	4dd
1c	.	2g	4ee
.	.	.	4ff
.	2e	2a	[2ee
=56	=56	=56	=56
2B	2f	2b	4ee]
.	.	.	4dd
2G	2g	2b	1dd
1A	1e	1a	.
.	.	.	2cc#i
=57	=57	=57	=57
0D	2.d	1f	1.dd
.	4c	.	.
.	4d	2r	.
.	4c	.	.
.	4B	2f	2dd
.	4A	.	.
=58	=58	=58	=58
0r	1B-X	2f	1dd
.	.	2g	.
.	1A	4a	4cc
.	.	4b	4dd
.	.	4cc	4ee
.	.	4a	4cc
=59	=59	=59	=59
2r	2G	2b	2dd
2F	2c	1a	2cc
2F	1d	.	2.a
2G	.	4g	.
.	.	4f	4b
=60	=60	=60	=60
4A	1c	2.e	1cc
4B	.	.	.
4c	.	.	.
4A	.	4c	.
2B	2r	2d	1r
[2A	2c	[2e	.
=61	=61	=61	=61
4A]	2c	2e]	0r
4G	.	.	.
2F	2d	1d	.
4E	4e	.	.
4D	4f	.	.
2E	4g	2c	.
.	4e	.	.
=62	=62	=62	=62
2D	2f	2d	2r
2C	1e	2e	2cc
1F	.	4f	2cc
.	.	4g	.
.	[2d	4a	2dd
.	.	4f	.
=63	=63	=63	=63
1E	2d]	1g	4ee
.	.	.	4ff
.	2c	.	4gg
.	.	.	4ee
2D	2d	2f	2ff
2A	2c	[2a	2ee
=64	=64	=64	=64
2d	2f	2a]	4ee
.	.	.	4dd
2B	4e	2g	1dd
.	4d	.	.
1A	1e	1a	.
.	.	.	2cc#i
=65	=65	=65	=65
1.B	2.d	2.f	1.dd
.	4e	4e	.
.	4f	2d	.
.	4g	.	.
2A	4a	[2e	2cc
.	4f	.	.
=66	=66	=66	=66
1G	1g	2e]	1b
.	.	1d	.
1A	1e	.	1a
.	.	2c	.
=67	=67	=67	=67
2D	2.f	2.d	2a
1B	.	.	1dd
.	4e	4e	.
.	2d	4f	.
.	.	4g	.
2A	[2e	4a	2cc
.	.	4f	.
=68	=68	=68	=68
1G	2e]	1g	1b
.	1d	.	.
1A	.	1e	[1a
.	2c#i	.	.
=69	=69	=69	=69
0D;	0d;	0f;	0a;]
=70	=70	=70	=70
1r	0r	1.d	0r
[1D	.	.	.
.	.	2d	.
=71	=71	=71	=71
2D]	1r	2.f	1.a
2D	.	.	.
.	.	4g	.
2.F	[1A	2.a	.
.	.	.	2a
4G	.	8gL	.
.	.	8fJ	.
=72	=72	=72	=72
[0A	2A]	0e	2.cc
.	2A	.	.
.	.	.	4dd
.	2.c	.	1ee
.	4d	.	.
=73	=73	=73	=73
0A]	0e	2r	0ee
.	.	1a	.
.	.	4g	.
.	.	4f	.
=74	=74	=74	=74
0r	0r	2g	1ee
.	.	2a	.
.	.	4d	1ff
.	.	4e	.
.	.	4f	.
.	.	4g	.
=75	=75	=75	=75
1.A	0e	2.a	2ee
.	.	.	1cc
.	.	4b	.
.	.	1cc	.
4G	.	.	4b
4F	.	.	4a
=76	=76	=76	=76
2G	1e	2b	2b
2A	.	1a	2cc
4D	1f	.	2dd
4E	.	.	.
4F	.	[2a	2dd
4G	.	.	.
=77	=77	=77	=77
4A	2.e	2a]	2.cc
4G	.	.	.
4A	.	4g	.
4B	4d	4f	4b
2c	2c	2e	[1a
[2d	2B	2d	.
=78	=78	=78	=78
2d]	1A	1e	0a]
2c#i	.	.	.
1d	2d	2r	.
.	2f	[2d	.
=79	=79	=79	=79
0B-X	4f	2d]	0r
.	4e	.	.
.	4d	2d	.
.	4c	.	.
.	1d	2.f	.
.	.	4g	.
=80	=80	=80	=80
1A	0e	1a	2r
.	.	.	1a
2r	.	2r	.
[2A	.	[2a	2a
=81	=81	=81	=81
2A]	2r	2a]	2.cc
2A	1A	4g	.
.	.	4f	4dd
2.c	.	2e	1ee
.	2A	2a	.
4d	.	.	.
=82	=82	=82	=82
2e	2.c	1g	2r
1c	.	.	1ee
.	4d	.	.
.	2e	[1g	.
4B	2e	.	4dd
4A	.	.	4cc
=83	=83	=83	=83
2B	2d	2g]	2dd
2c	2g	4f	2ee
.	.	4e	.
1F	2a	2f	4a
.	.	.	4b
.	2f	[2a	4cc
.	.	.	4dd
=84	=84	=84	=84
1c	1e	2a]	4ee
.	.	.	4ff
.	.	2g	4gg
.	.	.	4ee
2d	2d	[1b	2ff
2G	2g	.	[2ee
=85	=85	=85	=85
1B	2f	2b]	4ee]
.	.	.	4dd
.	4e	2g	1dd
.	4d	.	.
1A	1e	1a	.
.	.	.	2cc#i
=86	=86	=86	=86
00D	00d	00f 00a>	00dd
=87||	=87||	=87||	=87||
*M2/1	*M2/1	*M2/1	*M2/1
*met(C|)	*met(C|)	*met(C|)	*met(C|)
!!section: Qui tollis
!!!OMD: Qui tollis
0r	0r	0r	1.ee
.	.	.	2ee
=88	=88	=88	=88
0r	0r	0r	1dd
.	.	.	2.cc
.	.	.	4dd
=89	=89	=89	=89
0r	0r	1.a	2ee
.	.	.	2ff
.	.	.	2ee
.	.	2a	2cc
=90	=90	=90	=90
0r	0r	1g	2dd
.	.	.	2ee
.	.	2.f	2a
.	.	.	[2ff
.	.	4g	.
=91	=91	=91	=91
0r	0r	2a	2ff]
.	.	2b-i	4ee
.	.	.	4dd
.	.	2a	2cc
.	.	2f	2dd
=92	=92	=92	=92
0r	1.e	2g	2.cc
.	.	1a	.
.	.	.	8bL
.	.	.	8aJ
.	.	.	2.b
.	2e	2g	.
.	.	.	4cc
=93	=93	=93	=93
0r	1d	2a	4dd
.	.	.	4ee
.	.	4g	2.ff
.	.	4f	.
.	2.c	1g	.
.	.	.	8eeL
.	.	.	8ddJ
.	.	.	2ee
.	4d	.	.
=94	=94	=94	=94
1.A	2e	2a	1cc
.	2f	4A	.
.	.	4B	.
.	2e	4c	2a
.	.	4d	.
2A	2c	4e	2cc
.	.	4f	.
=95	=95	=95	=95
1G	2d	1g	2b
.	2e	.	2g
2.F	2A	2r	2.a
.	[2f	2a	.
4G	.	.	4b
=96	=96	=96	=96
2A	2f]	2a	2cc
2B-i	4e	2f	2dd
.	4d	.	.
2A	1c	2a	2ee
2F	.	2a	2a
=97	=97	=97	=97
2G	2.e	2g	2b
2A	.	2e	2cc
.	4e	.	.
1D	2f	2d	4dd
.	.	.	4cc
.	2f	[2a	4b
.	.	.	4a
=98	=98	=98	=98
0r	1e	2a]	1b
.	.	2g#i	.
.	1A	2a	2a
.	.	4a	[2ee
.	.	4a	.
=99	=99	=99	=99
1r	1G	2b	4ee]
.	.	.	4dd
.	.	2b	1dd
2.A	1A	1a	.
.	.	.	2cc
4A	.	.	.
=100	=100	=100	=100
2B	2r	4d	1dd
.	.	4e	.
2B	1d	4f	.
.	.	4d	.
1A	.	2.a	2.ee
.	2c	.	.
.	.	4g	4ee
=101	=101	=101	=101
1D	1d	2f	2ff
.	.	4e	2ff
.	.	4d	.
2.A	2.e	2c	1ee
.	.	2A	.
4G	4e	.	.
=102	=102	=102	=102
4F	2f	[0a	1a
4D	.	.	.
2.d	2f	.	.
.	1e	.	2.ee
8cL	.	.	.
8BJ	.	.	.
2c	.	.	.
.	.	.	4ee
=103	=103	=103	=103
2.F	2.A	1a]	2ff
.	.	.	4ee
4G	4B	.	4dd
1A	2c	2.a	4cc
.	.	.	4dd
.	4B	.	[2ee
.	4A	4a	.
=104	=104	=104	=104
1r	1G	2b	2ee]
.	.	2b	2dd
2.A	1r	1a	2cc
.	.	.	[2ee
4A	.	.	.
=105	=105	=105	=105
2B	2.d	2f	4ee]
.	.	.	4dd
2B	.	2g	1dd
.	4d	.	.
1A	2e	1a	.
.	2e	.	2cc#i
=106	=106	=106	=106
1D	1d	2r	1dd
.	.	2a	.
1r	1G	2.b-i	2r
.	.	.	2dd
.	.	4b-i	.
=107	=107	=107	=107
1r	1d	2a	2.ff
.	.	2f	.
.	.	.	4ff
2r	1r	2g	2ee
2A	.	2a	2cc
=108	=108	=108	=108
2.B-i	2r	4d	2dd
.	.	4e	.
.	2d	4f	2dd
4B-i	.	4g	.
2A	2.f	4a	1cc
.	.	4b	.
2F	.	4cc	.
.	4f	4a	.
=109	=109	=109	=109
2G	2e	2b	2r
2A	2c	2a	2ee
4D	2d	1a	2.ff
4E	.	.	.
4F	2d	.	.
4G	.	.	4ff
=110	=110	=110	=110
1A	1c	2r	2ee
.	.	2a	2cc
1r	2r	2.b-i	2dd
.	2d	.	2dd
.	.	4b-i	.
=111	=111	=111	=111
1r	2.f	2a	2.cc
.	.	2f	.
.	4f	.	8bL
.	.	.	8aJ
2r	2e	2g	2b
2A	2c	[2f	[2a
=112	=112	=112	=112
2.B-i	2d	2f]	2a]
.	2d	4e	2g
4B-i	.	4d	.
2A	2c	2e	1cc
2F	4B	[2f	.
.	4A	.	.
=113	=113	=113	=113
2G	1B	2f]	2b
2G	.	2e	2g
1F	1c	1f	1a
=114	=114	=114	=114
1.c	1.e	2r	1g
.	.	1g	.
.	.	.	[1cc
2c	2e	2g	.
=115	=115	=115	=115
1c	2e	1g	2cc]
.	1e	.	2cc
[1A	.	[1a	2cc
.	2e	.	[2cc
=116	=116	=116	=116
2A]	2e	2a]	2cc]
2A	2e	2a	2cc
2A	2e	2a	2cc
2F	2f	2a	2a
=117	=117	=117	=117
2G	2e	2.g	2b
2G	1d	.	2b
.	.	4f	.
1A	.	1e	1a
.	2c#i	.	.
=118	=118	=118	=118
2D	1d	2.f	0a
2d	.	.	.
.	.	4d	.
2c	1r	2e	.
2d	.	2f	.
=119	=119	=119	=119
4G	1r	2r	1dd
4A	.	.	.
4B	.	2g	.
4c	.	.	.
2d	2r	2f	2dd
2G	2g	2g	2dd
=120	=120	=120	=120
2B-i	2f	2d	2.dd
4A	2g	2b-i	.
4G	.	.	4ee
2F	2c	2a	2ff
2c	2e	2g	[2ee
=121	=121	=121	=121
2B-X	2f	1b-i	4ee]
.	.	.	4dd
2G	2g	.	1dd
1A	1e	1a	.
.	.	.	2cc#i
=122	=122	=122	=122
1D	2d	2a	1dd
.	2d	2a	.
2r	2c	2a	2r
2d	2d	2a	2ff
=123	=123	=123	=123
2c	2A	2.a	2ee
2d	2d	.	2dd
.	.	4b	.
2A	2c	4cc	2ee
.	.	4b	.
[2d	4d	4a	[2ff
.	4e	4g	.
=124	=124	=124	=124
2d]	4f	2f	2ff]
.	4g	.	.
2A	2a	2c	2ee
1B-i	2f	2f	1dd
.	4e	2g	.
.	4d	.	.
=125	=125	=125	=125
0A	1e	1.a	0cc
.	2.c	.	.
.	.	4g	.
.	4c	4f	.
=126	=126	=126	=126
1G	2d	1g	1r
.	2e	.	.
1F	2.f	2.a	2.cc
.	4e	4g	4cc
=127	=127	=127	=127
1r	2d	2f	2dd
.	4c	4e	2ee
.	4B	4d	.
2.F	2A	2c	2.ff
.	2c	2f	.
4F	.	.	4ee
=128	=128	=128	=128
2G	2B	1r	2dd
2A	2A	.	2cc#i
2.B-i	2.d	2.f	[1dd
4A	4c	4f	.
=129	=129	=129	=129
2G	4d	2g	1dd]
.	4e	.	.
2F	2f	2a	.
[1G	1d	2.b-i	1dd
.	.	4a	.
=130	=130	=130	=130
2G]	1e	2g	2b
2A	.	4f	2cc
.	.	4e	.
2B-i	2r	2d	[1dd
2F	2a	2f	.
=131	=131	=131	=131
2G	2b-i	1e	2dd]
2A	2a	.	2cc#i
2.B-i	1f	2d	2dd
.	.	2r	4r
4A	.	.	4ccny
=132	=132	=132	=132
2G	2r	1g	2dd
4F	2c	.	2ee
4E	.	.	.
2D	2d	2f	2ff
2A	2e	[2a	2ee
=133	=133	=133	=133
1d	2.f	2a]	4dd
.	.	.	4cc
.	.	4g	4b
.	4e	4f	4a
1G	2d	4g	2b
.	.	4f	.
.	4c	4e	2b
.	4B	4d	.
=134	=134	=134	=134
1A	2A	2.c	2cc
.	2c	.	1a
.	.	4d	.
1E	1B	1e	.
.	.	.	2g#i
=135	=135	=135	=135
2.A	2A	1r	0a
.	1e	.	.
4G	.	.	.
1F	.	2r	.
.	2d	[2a	.
=136	=136	=136	=136
1E	2e	2a]	0r
.	2e	2g	.
2r	2f	2a	.
[2A	2e	2a	.
=137	=137	=137	=137
2A]	2f	2b	2r
2G	2g	2b	1dd
2A	1e	1a	.
2A	.	.	2cc
=138	=138	=138	=138
2B	2r	2f	2dd
2B	1d	2d	2dd
1A	.	[1a	2ee
.	2c	.	2ee
=139	=139	=139	=139
1D	2d	1a]	1dd
.	2d	.	.
1A	2e	1a	1cc
.	2e	.	.
=140	=140	=140	=140
1B-X	2d	2g	2b-X
.	2d	1f	1a
1B-i	1d	.	.
.	.	4e	2g
.	.	4d	.
=141	=141	=141	=141
1.A	2e	2c	2a
.	4A	2c	1cc
.	4B	.	.
.	4c	4A	.
.	4d	4B	.
2A	4e	4c	2cc
.	4f	4d	.
=142	=142	=142	=142
1G	2.g	2e	1b
.	.	1d	.
.	4f	.	.
1A	1e	.	[1a
.	.	2c#i	.
=143	=143	=143	=143
2D	1f	4d	1a]
.	.	4e	.
1d	.	4f	.
.	.	4g	.
.	1e	[1a	2r
2c#i	.	.	2ee
=144	=144	=144	=144
1d	2d	0a]	2ff
.	2f	.	4ee
.	.	.	4dd
2r	1e	.	2cc
2A	.	.	2cc
=145	=145	=145	=145
2B-i	1d	1r	2dd
4A	.	.	2dd
4G	.	.	.
2F	1r	2r	1a
2F	.	2a	.
=146	=146	=146	=146
2G	2r	2b-i	4g
.	.	.	4a
2G	2e	4a	4b
.	.	4g	4cc
1D	2f	2f	1dd
.	4e	2f	.
.	4d	.	.
=147	=147	=147	=147
2r	2c	2g	1ee
2A	2c	1a	.
1B	2d	.	[1dd
.	2d	2g#i	.
=148	=148	=148	=148
0A	0e	0a	2dd]
.	.	.	4cc
.	.	.	4b
.	.	.	1cc
=149	=149	=149	=149
*M3/1	*M3/1	*M3/1	*M3/1
*met(3)	*met(3)	*met(3)	*met(3)
1A	1e	1a	1cc
1A	1e	1a	1cc
1d	1f	1b	1dd
=150	=150	=150	=150
0c	0g	0cc	0.ee
1r	1r	1r	.
=151	=151	=151	=151
1c	1e	1a	0.r
1A	1e	1a	.
1B	1d	1g	.
=152	=152	=152	=152
1.A	0.e	1a	0ee
.	.	1a	.
2B	.	.	.
1c	.	1g	1ee
=153	=153	=153	=153
1d	0.r	1f	1dd
0A	.	1.e	1ee
.	.	.	1ee
.	.	2f	.
=154	=154	=154	=154
0.r	1r	1g	1dd
.	1a	1a	1cc
.	1a	1e	[1b
=155	=155	=155	=155
0.r	1g	1e	1b]
.	1a	1.A	1.a
.	1a	.	.
.	.	2B	4g
.	.	.	4f
=156	=156	=156	=156
1r	1g	1c	1e
1r	0f	0d	2d
.	.	.	2e
1d	.	.	2f
.	.	.	2g
=157	=157	=157	=157
1d	0e	0A	0a
1c	.	.	.
1d	1f	1r	[1a
=158	=158	=158	=158
1d	1f	1a	2a]
.	.	.	2b
1c	1e	1a	1cc
1B	1d	1g	[1dd
=159	=159	=159	=159
1.A	1e	1a	2dd]
.	.	.	4cc
.	.	.	4b
.	1e	1a	2cc
2B	.	.	2dd
1c	1e	1g	1ee
=160	=160	=160	=160
2F	0a	0cc	0ff
2G	.	.	.
2A	.	.	.
2B	.	.	.
1c	1g	1cc	1ee
=161	=161	=161	=161
1d	2f	1a	2dd
.	2g	.	2cc
1A	1a	1cc	1.ee
1B-X	1f	[1b-X	.
.	.	.	2dd
=162	=162	=162	=162
1G	1g	1b-]	0dd
0A	0e	0a	.
.	.	.	1cc#i
=163	=163	=163	=163
00Dl	00dl	00al	00ddl
==	==	==	==
*-	*-	*-	*-
!!!system-decoration: [*]
!!!RDF**kern: i = editorial accidental
!!!RDF**kern: l = terminal long
!!!ENC: Lance Morrison
!!!END: 2025/10/31
!!!EED: Benjamin Ory
!!!EEV: 2025/10/31
!!!YEC: Copyright 2025 Benjamin Ory, All Rights Reserved
!!!ONB: Translated from MusicXML on 2025/10/31
!!!header-left: Edited by @{ENC} (2025)\n
!!!header-right:
!!!header-center:
